X: 1
T:Paddy Cronin's
N:IrTrad, 6/99
M:6/8
S:Charlie Harris, Willie Clancy Summer School 1998
R:jig
Q:120
L:1/8
K:G
G|:EAA ABd|ege dBA|GEF G2B|dBA GED|
EAA ABd|ege def|g2d efg|1 dBG A2G:|2 dBG A2d
|:eag e2d|eaa bag|efg d2g|eaf ged|
eag e2d|eaa bag|efg edB|1 BAG A2d:|2 BAG A3||
